icons/1_Primary/balena.svg

<svg xmlns="http://www.w3.org/2000/svg" width="1024" height="1024" fill="none">
   <g clip-path="url(#a)">
      <path fill="#73ADA4" d="M512 1024c282.77 0 512-229.23 512-512S794.77 0 512 0 0 229.23 0 512s229.23 512 512 512Z"/>
      <path fill="#fff" d="m753.07 390.559-51.36 29.89c1.53 5.37 3.07 11.5 3.07 17.63v148.7c0 21.46-11.5 42.16-30.66 52.89l-130.31 74.33a81.505 81.505 0 0 1-19.16 6.9v59a75.496 75.496 0 0 0 26.06-9.2l168.63-96.58c23.76-13.8 38.33-38.33 38.33-65.92v-192.35a73.603 73.603 0 0 0-4.6-25.29Zm-401.65-5.37L481 310.839c19.16-10.73 42.92-10.73 61.32 0l130.31 74.35c6.9 3.83 12.26 9.2 16.86 14.56l51.36-29.89a68.497 68.497 0 0 0-22.23-19.93l-168.68-96.58c-23.76-13.8-52.89-13-75.88 0l-168.63 96.58a74.487 74.487 0 0 0-23 20.7l51.36 29.89c5.36-6.13 10.73-11.52 17.63-15.33ZM481 713.999l-129.58-74.33c-19.16-10.73-30.66-31.43-30.66-52.89v-148.7a59.778 59.778 0 0 1 2.3-16.86l-52.12-29.89a66.397 66.397 0 0 0-4.6 24.53v193.14a76.615 76.615 0 0 0 38.33 65.92l168.63 96.58a75.489 75.489 0 0 0 26.06 9.2v-59a187.056 187.056 0 0 1-18.36-7.7Zm56.92-11.12a69.507 69.507 0 0 1-14 5.25v-143.58c.77-23 6.9-42.16 36-62.85l130.52-74.78a45.46 45.46 0 0 1 1.76 11.16v148.7c0 17.21-9.51 33.66-24.22 41.9l-130.06 74.2Zm140.7-296.46-130.98 75.35c-16.86 10.73-28.36 21.46-36 33.73-7.67-12.26-19.16-23-36-33.73L345 406.919c4.13-4.56 8-8.16 12.58-10.72h.16l129.42-74.4a50.84 50.84 0 0 1 24.74-6.41 47.678 47.678 0 0 1 24 6.33h.1l130.31 74.35h.12a48.008 48.008 0 0 1 12.14 10.38l.05-.03Zm-345.27 31.66a48.441 48.441 0 0 1 1.05-10.35l128.92 74c29.13 20.7 35.26 39.86 36 62.85v143.65c-4.27-1.63-8.39-3.3-12.45-5.31l-129.18-74.17h-.12c-14.71-8.24-24.22-24.69-24.22-41.9v-148.77Z"/>
   </g>
   <defs>
      <clipPath id="a">
         <path fill="#fff" d="M0 0h1024v1024H0z"/>
      </clipPath>
   </defs>
</svg>

<svg width="1024" height="1024" viewBox="0 0 1024 1024" fill="none" xmlns="http://www.w3.org/2000/svg">
<g clip-path="url(#clip0_2_1560)">
<path d="M512 1024C794.77 1024 1024 794.77 1024 512C1024 229.23 794.77 0 512 0C229.23 0 0 229.23 0 512C0 794.77 229.23 1024 512 1024Z" fill="#73ADA4"/>
<path d="M753.07 390.559L701.71 420.449C703.24 425.819 704.78 431.949 704.78 438.079V586.779C704.78 608.239 693.28 628.939 674.12 639.669L543.81 713.999C537.737 717.091 531.3 719.409 524.65 720.899V779.899C533.829 778.462 542.663 775.343 550.71 770.699L719.34 674.119C743.1 660.319 757.67 635.789 757.67 608.199V415.849C757.632 407.215 756.075 398.654 753.07 390.559ZM351.42 385.189L481 310.839C500.16 300.109 523.92 300.109 542.32 310.839L672.63 385.189C679.53 389.019 684.89 394.389 689.49 399.749L740.85 369.859C734.996 361.662 727.405 354.857 718.62 349.929L549.94 253.349C526.18 239.549 497.05 240.349 474.06 253.349L305.43 349.929C296.399 355.143 288.563 362.195 282.43 370.629L333.79 400.519C339.15 394.389 344.52 388.999 351.42 385.189ZM481 713.999L351.42 639.669C332.26 628.939 320.76 608.239 320.76 586.779V438.079C320.719 432.378 321.493 426.701 323.06 421.219L270.94 391.329C267.87 399.141 266.309 407.465 266.34 415.859V608.999C266.418 622.377 269.997 635.501 276.722 647.066C283.447 658.631 293.082 668.234 304.67 674.919L473.3 771.499C481.346 776.143 490.181 779.262 499.36 780.699V721.699C493.108 719.46 486.979 716.89 481 713.999ZM537.92 702.879C533.455 705.127 528.762 706.888 523.92 708.129V564.549C524.69 541.549 530.82 522.389 559.92 501.699L690.44 426.919C691.488 430.551 692.08 434.3 692.2 438.079V586.779C692.2 603.989 682.69 620.439 667.98 628.679L537.92 702.879ZM678.62 406.419L547.64 481.769C530.78 492.499 519.28 503.229 511.64 515.499C503.97 503.239 492.48 492.499 475.64 481.769L345 406.919C349.13 402.359 353 398.759 357.58 396.199H357.74L487.16 321.799C494.726 317.591 503.242 315.384 511.9 315.389C520.318 315.343 528.599 317.527 535.9 321.719H536L666.31 396.069H666.43C671.028 398.827 675.131 402.335 678.57 406.449L678.62 406.419ZM333.35 438.079C333.327 434.601 333.68 431.131 334.4 427.729L463.32 501.729C492.45 522.429 498.58 541.589 499.32 564.579V708.229C495.05 706.599 490.93 704.929 486.87 702.919L357.69 628.749H357.57C342.86 620.509 333.35 604.059 333.35 586.849V438.079Z" fill="white"/>
</g>
<defs>
<clipPath id="clip0_2_1560">
<rect width="1024" height="1024" fill="white"/>
</clipPath>
</defs>
</svg>
